public/svgs/editfolder.svg

<svg width="24" height="24" viewBox="0 0 24 24" fill="none" xmlns="http://www.w3.org/2000/svg">
<circle cx="12" cy="12" r="12" fill="#3A3A3B"/>
<path d="M8 17.5H16" stroke="#F2F2F2" stroke-linecap="round"/>
<path fill-rule="evenodd" clip-rule="evenodd" d="M6.46947 18H9.28631L16.2143 11.071L13.1608 8.01745L12.928 7.78471L6.13751 14.5762C6.09391 14.6198 6.05933 14.6715 6.03574 14.7285C6.01214 14.7854 6 14.8465 6 14.9081V17.5305C6 17.655 6.04946 17.7745 6.13751 17.8625C6.22555 17.9505 6.34496 18 6.46947 18ZM13.6351 7.07755L13.8679 7.31035L16.9214 10.3639L17.8613 9.42382C17.9494 9.33578 17.9988 9.21636 17.9988 9.09185C17.9988 8.96734 17.9494 8.84793 17.8613 8.75988L15.2389 6.13751C15.1509 6.04946 15.0315 6 14.907 6C14.7825 6 14.6631 6.04946 14.575 6.13751L13.6351 7.07755Z" fill="#F2F2F2"/>
</svg>

<svg width="24" height="24" fill="none" xmlns="http://www.w3.org/2000/svg"><circle cx="12" cy="12" r="12" fill="#3A3A3B"/><path d="M8 17.5h8" stroke="#F2F2F2" stroke-linecap="round"/><path fill-rule="evenodd" clip-rule="evenodd" d="M6.47 18h2.816l6.928-6.929-3.053-3.054-.233-.232-6.79 6.791a.469.469 0 0 0-.138.332v2.623a.47.47 0 0 0 .47.469Zm7.165-10.922.233.232 3.053 3.054.94-.94a.47.47 0 0 0 0-.664L15.24 6.138a.47.47 0 0 0-.664 0l-.94.94Z" fill="#F2F2F2"/></svg>
